X:1
T:9 Lieder und Gesänge, Op.63
T:Junge Liebe II
T:6. Junge Liebe II
T:Johannes Brahms
T:Felix Schumann
T:9 Lieder und Gesänge, Op.63
T:Creative Commons copyright waiver (CC0 1.0 Universal) 
T:Creative Commons copyright waiver (CC0 1.0 Universal) 
C:Johannes Brahms
Z:Felix Schumann
Z:Creative Commons copyright waiver (CC0 1.0 Universal)
Z:
L:1/8
M:6/4
K:D
V:1 treble nm="Voice" snm="Vo."
V:1
 z2 | z12 | z12 | z6 z2 z2 d2 | c3 c B2 c2 A2 B2 | A2 F2 G2 A2 c2 e2 | g2 f2 e2 B2 A2 d2 | %7
w: |||Wenn|um den Hol- lun- der der|A- bend- wind kost und der|Fal- * ter um den Jas-|
 e4 B2 c2 z2 A2 | _B3 =c d2 g4 c2 | _B3 =c d2 g4 ee | =f4 e2 ^c2 d2 _B2 | A4 ^G2 e4 AA | %12
w: mi- nen- strauch, dann|kos ich mit mei- nem|Lieb- * chen auch auf der|Stein- bank schat- tig und|weich be- moost, auf der|
 f4 c2 d2 ^A2 B2 | =A6- A4 C2 | D4 z2 z2 z2 d2 | c4 B2 c2 A2 B2 | A2 F2 G2 A2 c2 e2 | %17
w: Stein- bank schat- tig und|weich * be-|moost. Und|wenn vom Dor- fe die|Glo- cke er- schallt und der|
 g2 f2 e2 B2 A2 d2 | e3 B B2 c4 A2 | _B3 =c d2 g4 ^cc | _B3 =c d2 g4 ee | =f4 e2 ^c2 d2 _B2 | %22
w: Ler- * che ju- beln- des|A- bend- ge- bet, denn|schwei- gen wir auch und die|See- le zer- geht vor der|Lie- be hei- li- ger|
 A3 A ^G2 e4 AA | f4 c2 d2 ^A2 B2 | =A6 C4 C2 | D4 z2 z6 | z6 z2 z2 d2 | c3 c B2 c2 A2 B2 | %28
w: Got- tes- ge- walt, vor der|Lie- be hei- li- ger|Got- tes- ge-|walt.|Und|blickt dann vom Him- mel der|
 A2 F2 G2 A2 c2 e2 | g2 f2 e2 B2 A2 d2 | e4 B2 c2 z2 A2 | _B3 =c d2 g4 ^cc | _B3 =c d2 g4 e2 | %33
w: Ster- * ne Schar und das|Glüh- würm- chen in * der|Li- lie Schoss, dann|las- se ich sie aus den|Ar- * men los und|
 =f3 f e2 ^c2 d2 _B2 | A4 ^G2 e4 A2 | f3 f c2 d2 ^A2 B2 | =A6- A4 C2 | D4 z2 z6 |] %38
w: küs- se ihr schei- dend das|Au- gen- paar, und|küs- se ihr schei- dend das|Au- * gen-|paar.|

